!!!!SEGMENT: pl-kk--kk-i-3--019_anonim--alter-tractus-ave-maria.krn
!!!cenid: 15xx:626
!!!COM: Anonim
!!!COM-rismID: pe30004985
!!!CDT:
!!!CNT:
!!!OTL: Alter tractus/Ave Maria
!!!PDT:
!!!AGN:
!!!SMS-siglum: PL-Kk
!!!SMS-shelfmark: Kk.I.3
!!!SMS-shelfwork: 019 W
!!!SMS-variant:
!!!SMS-altvar:
!!!NIFC-rismSourceID: 1001145493
!!!NIFC-rismChildID: 1001145493
!!!NIFC-islandoraID: pl-kk:1170
!!!URL-pdf-islandora: https://repozytorium.nifc.pl/islandora/object/pl-kk%3A1170/datastream/PDF/view
!!!URL-scan: https://polish.musicsources.pl/pl/lokalizacje/galeria/rekopisy/5919 @EN{Scan on Polish Music Sources Website} @PL{Skany w portalu Dziedzictwo Muzyki Polskiej w otwartym dostępie}
!!!IIIF:
!!!ONB-nifc: UWAGA: Discantus (s. 79r-82v, skan 0081-0085), Tenor (s. 56r-59v, skan 0228-0232), Bassus (s. 75r-79r, skan 0378-0382)
!!!AIN: 1 alto 1 bass 1 tenor
!!!key: d:dor
**kern	**text	**kern	**text	**kern	**text
*part3	*part3	*part2	*part2	*part1	*part1
*staff3	*staff3	*staff2	*staff2	*staff1	*staff1
*I"Bassus	*	*I"Tenor	*	*I"Discantus	*
*I'B	*	*I'T	*	*I'A	*
*Ibass	*	*Itenor	*	*Ialto	*
*ICvox	*	*ICvox	*	*ICvox	*
*clefF4	*	*clefC5	*	*clefC4	*
*k[]	*	*k[]	*	*k[]	*
*d:dor	*	*d:dor	*	*d:dor	*
*M2/1	*	*M2/1	*	*M2/1	*
*met(C|)	*	*met(C|)	*	*met(C|)	*
=1-	=1-	=1-	=1-	=1-	=1-
1r	.	00r	.	00r	.
1D	A-	.	.	.	.
=2-	=2-	=2-	=2-	=2-	=2-
1C	-ve	.	.	.	.
0D	.	.	.	.	.
=3-	=3-	=3-	=3-	=3-	=3-
.	.	00r	.	0r	.
1C	.	.	.	.	.
=4-	=4-	=4-	=4-	=4-	=4-
2AA/	.	.	.	1A	A-
1C	.	.	.	.	.
*	*	*	*	*lig	*
.	.	.	.	1G	-ve
2BB/	.	.	.	.	.
=5-	=5-	=5-	=5-	=5-	=5-
2AA/	.	1r	.	1A	.
*custos:GG	*	*	*	*	*
2FF/	.	.	.	.	.
!LO:LB:g=original	!	!	!	!	!
*lig	*	*	*	*Xlig	*
1GG	.	1D	A-	1G	.
=6-	=6-	=6-	=6-	=6-	=6-
*	*	*lig	*	*	*
1AA	.	1C	-ve	1E	.
*Xlig	*	*	*	*	*
1GG	.	1D	.	0G	.
*	*	*Xlig	*	*	*
=7-	=7-	=7-	=7-	=7-	=7-
*	*	*lig	*	*	*
1G	.	1C	.	.	.
2F/	.	1AA	.	1A	.
2.E/	.	.	.	.	.
*	*	*Xlig	*	*	*
=8-	=8-	=8-	=8-	=8-	=8-
*	*	*lig	*	*	*
.	.	1C	.	2G/	.
4D/	.	.	.	.	.
1C	.	.	.	1A	.
.	.	1D	.	.	.
*	*	*	*	*custos:c	*
2BB/	.	.	.	2B/	.
*	*	*Xlig	*	*	*
!	!	!	!	!LO:LB:g=original	!
=9-	=9-	=9-	=9-	=9-	=9-
*	*	*lig	*	*	*
1AA	.	1C	.	1c	.
2r	.	1D	.	2A/	.
2.BB/	.	.	.	1d\	.
*	*	*Xlig	*	*	*
=10-	=10-	=10-	=10-	=10-	=10-
*	*	*lig	*	*	*
.	.	1F	.	.	.
4AA/	.	.	.	.	.
*	*	*	*	*2\right	*
2FF/	.	.	.	2c\	.
1GG	.	1D	.	2.d\	.
.	.	.	.	4e\	.
*	*	*Xlig	*	*	*
=11-	=11-	=11-	=11-	=11-	=11-
1FF	.	2r	.	2f\	.
*	*	*custos:D	*	*	*
.	.	2C/	.	2.F/	.
*custos:AA	*	*	*	*	*
!	!	!LO:LB:g=original	!	!	!
2BB/	.	2D/	.	.	.
.	.	.	.	4G/	.
!LO:LB:g=original	!	!	!	!	!
2AA/	.	2C/	.	2A/	.
=12-	=12-	=12-	=12-	=12-	=12-
2BB/	.	2D/	.	2.F/	.
*	*	*lig	*	*	*
1D	.	1F	.	.	.
.	.	.	.	4G/	.
*	*	*	*	*custos:B	*
.	.	.	.	2A/	.
!	!	!	!	!LO:PB:g=original	!
2GG/	.	1D/	.	2B/	.
*	*	*Xlig	*	*	*
=13-	=13-	=13-	=13-	=13-	=13-
1AA	.	.	.	4A/	.
.	.	.	.	4B/	.
.	.	2C/	.	4c/	.
.	.	.	.	4A/	.
2GG/	.	2D/	.	2B/	.
2FF/	.	1F\	.	1A\	.
=14-	=14-	=14-	=14-	=14-	=14-
1C	.	.	.	.	.
.	.	4E/	.	2G/	.
.	.	4D/	.	.	.
*lig	*	*	*	*lig	*
1AA	.	2E/	.	1D	.
.	.	2.F/	.	.	.
=15-	=15-	=15-	=15-	=15-	=15-
1BB	.	.	.	1E	.
.	.	4E/	.	.	.
.	.	1D	.	.	.
*Xlig	*	*	*	*Xlig	*
1AA	.	.	.	2D/	.
.	.	2C/	.	1d\	.
=16-	=16-	=16-	=16-	=16-	=16-
*	*	*custos:F	*	*	*
1r	.	1D	.	.	.
.	.	.	.	2.c\	.
!	!	!LO:LB:g=original	!	!	!
2r	.	0F	.	.	.
.	.	.	.	4A/	.
2.FF/	.	.	.	4c\	.
*	*	*	*	*custos:e	*
.	.	.	.	4d\	.
!	!	!	!	!LO:LB:g=original	!
=17-	=17-	=17-	=17-	=17-	=17-
.	.	.	.	1e	.
4GG/	.	.	.	.	.
4AA/	.	.	.	.	.
4BB/	.	.	.	.	.
*custos:D	*	*	*	*	*
1C	.	1E	.	2A/	.
.	.	.	.	1d\	.
!LO:LB:g=original	!	!	!	!	!
=18-	=18-	=18-	=18-	=18-	=18-
2D/	.	1D	.	.	.
2BB/	.	.	.	2c\	.
*	*	*lig	*	*	*
1AA	.	1E	.	2.d\	.
.	.	.	.	4c\	.
=19-	=19-	=19-	=19-	=19-	=19-
1D	Ma-	1D	.	2B/	.
.	.	.	.	1A	.
*lig	*	*Xlig	*	*	*
1D	-ri-	00r	.	.	.
.	.	.	.	4G/	.
.	.	.	.	4F/	.
=20-	=20-	=20-	=20-	=20-	=20-
1C	.	.	.	1E	.
*Xlig	*	*	*	*	*
*lig	*	*	*	*	*
1C	-a	.	.	2D/	ma-
.	.	.	.	1d\	.
=21-	=21-	=21-	=21-	=21-	=21-
1D	.	.	.	.	.
.	.	.	.	4c\	.
.	.	.	.	4B/	.
*	*	*	*	*custos:F	*
1E	.	00r	.	1c	.
*Xlig	*	*	*	*	*
!	!	!	!	!LO:LB:g=original	!
=22-	=22-	=22-	=22-	=22-	=22-
1.D	.	.	.	1.F	-ri-
2E/	.	.	.	2G/	-a
=23-	=23-	=23-	=23-	=23-	=23-
1F	.	.	.	1A,	.
*2\right	*	*	*	*	*
2G\	.	0r	.	2r	.
4F\	.	.	.	1G/	.
4E/	.	.	.	.	.
=24-	=24-	=24-	=24-	=24-	=24-
1D	.	.	.	.	.
.	.	.	.	4F/	.
.	.	.	.	4E/	.
1r	.	1r	.	1F	.
=25-	=25-	=25-	=25-	=25-	=25-
1GG	.	1D	Ma-	1B	.
*custos:C	*	*	*	*	*
*	*	*lig	*	*	*
2AA/	.	1D	-ri-	2A/	.
!LO:LB:g=original	!	!	!	!	!
2.C/	.	.	.	1G/	.
=26-	=26-	=26-	=26-	=26-	=26-
.	.	1C	.	.	.
4D/	.	.	.	.	.
2E/	.	.	.	2c/	Ma-
*	*	*Xlig	*	*	*
*	*	*lig	*	*	*
1D	.	1C	-a	2B/	.
.	.	.	.	1A\	.
=27-	=27-	=27-	=27-	=27-	=27-
1r	.	1D	.	.	.
.	.	.	.	2G/	.
*	*	*Xlig	*	*	*
*	*	*lig	*	*	*
1D	.	1E	.	2A/	.
*	*	*	*	*custos:c	*
.	.	.	.	2B/	.
!	!	!	!	!LO:LB:g=original	!
=28-	=28-	=28-	=28-	=28-	=28-
0AA	.	1D	.	2c\	.
.	.	.	.	1d	.
.	.	1E	.	.	.
.	.	.	.	2c\	.
*	*	*Xlig	*	*	*
=29-	=29-	=29-	=29-	=29-	=29-
*	*	*custos:E	*	*	*
1BB	.	1D	.	1d	.
!	!	!LO:LB:g=original	!	!	!
2.AA/	Ma-	1E	.	1.c	.
4GG/	.	.	.	.	.
=30-	=30-	=30-	=30-	=30-	=30-
1FF	.	1F	.	.	.
.	.	.	.	4B/	.
.	.	.	.	4A/	.
2C/	.	2.G/	.	2G/	.
2BB/	-ri-	.	.	2d\	.
.	.	4F/	.	.	.
=31-	=31-	=31-	=31-	=31-	=31-
2C/	-a	4E/	.	2e\	.
.	.	4D/	.	.	.
2FF/	.	2F/	.	2.d\	.
2GG/	.	2E/	.	.	.
.	.	.	.	4c\	.
*custos:GG	*	*	*	*	*
2AA/	.	2C/	.	1c\	.
!LO:PB:g=original	!	!	!	!	!
=32-	=32-	=32-	=32-	=32-	=32-
1GG	.	1D	.	.	.
*	*	*	*	*custos:c	*
.	.	.	.	2B/	-ri-
!	!	!	!	!LO:LB:g=original	!
2r	.	1C	.	2c/	-a
2.G\	gra	.	.	4B/	.
.	.	.	.	4A/	.
=33-	=33-	=33-	=33-	=33-	=33-
.	.	1r	.	4B/	.
4F/	.	.	.	4A/	.
4E/	.	.	.	4G/	.
4D/	.	.	.	4F/	.
*	*	*lig	*	*	*
4C/	.	1E	gra-	2E/	.
4BB/	.	.	.	.	.
4AA/	.	.	.	2.A/	.
4GG/	.	.	.	.	.
=34-	=34-	=34-	=34-	=34-	=34-
2FF/	.	1F	.	.	.
.	.	.	.	4G/	.
2.F/	.	.	.	2.F/	.
*	*	*Xlig	*	*	*
.	.	1D	-ti-	.	.
4E/	.	.	.	4D/	.
4D/	.	.	.	2.d\	gra-
4C/	.	.	.	.	.
=35-	=35-	=35-	=35-	=35-	=35-
*	*	*custos:D	*	*	*
4BB/	.	1D	-a	.	.
4AA/	.	.	.	4c\	.
2.GG/	.	.	.	2.B/	.
!	!	!LO:LB:g=original	!	!	!
*	*	*lig	*	*	*
.	.	1D	ple-	.	.
*custos:BB	*	*	*	*	*
4FF/	.	.	.	4A/	.
!LO:LB:g=original	!	!	!	!	!
2BB/	.	.	.	1G/	.
=36-	=36-	=36-	=36-	=36-	=36-
1AA	-ci-	1C	.	.	.
*	*	*	*	*custos:G	*
.	.	.	.	2F/	.
*	*	*Xlig	*	*	*
!	!	!	!	!LO:PB:g=original	!
2GG/	-a	1D	.	2G/	.
1D\	.	.	.	2.A/	.
=37-	=37-	=37-	=37-	=37-	=37-
*	*	*lig	*	*	*
.	.	1F	.	.	.
.	.	.	.	4G/	.
2D/	.	.	.	1F	.
*lig	*	*	*	*	*
1C	ple-	1G	.	.	.
.	.	.	.	2E/	-ti-
*	*	*Xlig	*	*	*
=38-	=38-	=38-	=38-	=38-	=38-
1D	.	1F	.	4F/	-a
.	.	.	.	4G/	.
.	.	.	.	4A/	.
.	.	.	.	4B/	.
*Xlig	*	*	*	*	*
2AA/	.	2E/	.	2c/	.
2D/	.	2F/	.	2d/	.
=39-	=39-	=39-	=39-	=39-	=39-
2C/	.	2G/	.	2.e\	ple-
1AA	.	2.A/	.	.	.
.	.	.	.	4d/	.
.	.	.	.	2c/	.
.	.	4G/	.	.	.
2BB/	.	1F\	.	2d\	-na
=40-	=40-	=40-	=40-	=40-	=40-
*	*	*	*	*custos:A	*
1GG	-na	.	.	1B	.
.	.	2E/	.	.	.
!	!	!	!	!LO:LB:g=original	!
2FF/	.	1F	-na	1A	.
2.F\	.	.	.	.	.
=41-	=41-	=41-	=41-	=41-	=41-
.	.	0r	.	1r	.
4E/	.	.	.	.	.
4D/	.	.	.	.	.
*custos:BB	*	*	*	*	*
4C/	.	.	.	.	.
!LO:LB:g=original	!	!	!	!	!
*	*	*	*	*lig	*
2BB/	.	.	.	1F	do-
2AA/	.	.	.	.	.
=42-	=42-	=42-	=42-	=42-	=42-
*	*	*lig	*	*	*
1GG	.	1G	do-	1G	.
*	*	*	*	*Xlig	*
*	*	*custos:D	*	*	*
*	*	*	*	*lig	*
2FF/	.	1C	.	1A	-mi-
2AA/	.	.	.	.	.
*	*	*Xlig	*	*	*
!	!	!LO:PB:g=original	!	!	!
=43-	=43-	=43-	=43-	=43-	=43-
*	*	*lig	*	*	*
1GG	.	1D	-mi-	1B	.
*	*	*	*	*Xlig	*
1FF	.	1F	.	2.A/	-nus
.	.	.	.	4B/	.
*	*	*Xlig	*	*	*
=44-	=44-	=44-	=44-	=44-	=44-
*	*	*lig	*	*	*
2r	.	1F	-nus	2c/	.
2FF/	do-	.	.	1d	.
2GG/	.	1E	.	.	.
2AA/	.	.	.	2c\	.
*	*	*Xlig	*	*	*
=45-	=45-	=45-	=45-	=45-	=45-
2BB/	.	1D	.	1d	.
2GG/	.	.	.	.	.
2AA/	.	2r	.	2c\	.
2BB/	.	2D/	te-	2d\	.
=46-	=46-	=46-	=46-	=46-	=46-
1AA	-mi-	2E/	.	1c	.
.	.	1F	.	.	.
2r	.	.	.	2.A/	.
2D/	-nvs	4E/	.	.	.
*	*	*	*	*custos:c	*
.	.	4D/	.	4B/	.
!	!	!	!	!LO:LB:g=original	!
=47-	=47-	=47-	=47-	=47-	=47-
*custos:D	*	*	*	*	*
2C/	.	2E/	.	2c\	.
!LO:LB:g=original	!	!	!	!	!
*k[b-]	*	*	*	*	*
2D/	.	2F/	.	2A/	.
*	*	*custos:G	*	*	*
2BB-/	te-	2D/	.	2d\	.
!	!	!LO:LB:g=original	!	!	!
2C/	.	2.G/	.	2.e\	.
=48-	=48-	=48-	=48-	=48-	=48-
2GG/	.	.	.	.	.
.	.	4F/	.	4c/	.
2BB-/	-cum	4E/	.	2d\	.
.	.	4D/	.	.	.
2.AA/	.	2F/	.	2.c\	te-
.	.	2.E/	.	.	.
4BB-/	.	.	.	4B/	-cum
=49-	=49-	=49-	=49-	=49-	=49-
2C/	.	.	.	2G/	.
.	.	4D/	.	.	.
2FF/	.	2.F/	.	2.A/	.
2AA/	.	.	.	.	.
.	.	4E/	.	4G/	.
2GG/	.	2G/	.	2.B/	.
=50-	=50-	=50-	=50-	=50-	=50-
*lig	*	*lig	*	*	*
1BB-	.	1D	.	.	.
.	.	.	.	4A/	.
.	.	.	.	4F/	.
*	*	*	*	*custos:A	*
.	.	.	.	4G/	.
!	!	!	!	!LO:LB:g=original	!
1AA	.	1E	.	1A	.
*Xlig	*	*Xlig	*	*	*
=51-	=51-	=51-	=51-	=51-	=51-
*custos:D	*	*	*	*	*
*	*	*custos:C	*	*	*
0D;	.	0D;l	-cum	0A;<	.
!LO:LB:g=original	!	!LO:LB:g=original	!	!	!
=52||	=52||	=52||	=52||	=52||	=52||
*k[]	*	*	*	*	*
!LO:TX:a:t=Benedicta tu tacet\nQuomodo fiet istvd\nverte lex folia\nretro	!	!	!	!LO:TX:a:t=Qvomo Benedicta tv\ndo fiet    Tacet\nistvd Tacet	!
0ryy	.	1C	Be-	0ryy	.
.	.	1D	-ne-	.	.
=53-	=53-	=53-	=53-	=53-	=53-
*	*	*lig	*	*	*
0ryy	.	1F	-di-	0ryy	.
.	.	1G	.	.	.
*	*	*Xlig	*	*	*
=54-	=54-	=54-	=54-	=54-	=54-
0ryy	.	1F	[[cta]]	0ryy	.
.	.	1D	.	.	.
=55-	=55-	=55-	=55-	=55-	=55-
0ryy	.	0F	.	0ryy	.
=56-	=56-	=56-	=56-	=56-	=56-
0ryy	.	1E	.	0ryy	.
.	.	1D	.	.	.
=57-	=57-	=57-	=57-	=57-	=57-
*	*	*lig	*	*	*
0ryy	.	1F	.	0ryy	.
.	.	1G	.	.	.
*	*	*Xlig	*	*	*
=58-	=58-	=58-	=58-	=58-	=58-
0ryy	.	1F	.	0ryy	.
.	.	1E	.	.	.
=59-	=59-	=59-	=59-	=59-	=59-
*	*	*lig	*	*	*
0ryy	.	1G	.	0ryy	.
.	.	1A	.	.	.
*	*	*Xlig	*	*	*
=60-	=60-	=60-	=60-	=60-	=60-
*	*	*custos:E	*	*	*
0ryy	.	1G	.	0ryy	.
!	!	!LO:LB:g=original	!	!	!
.	.	1E	.	.	.
=61-	=61-	=61-	=61-	=61-	=61-
*	*	*lig	*	*	*
0ryy	.	1F	.	0ryy	.
.	.	1G	.	.	.
*	*	*Xlig	*	*	*
=62-	=62-	=62-	=62-	=62-	=62-
0ryy	.	1E	.	0ryy	.
*	*	*lig	*	*	*
.	.	1F	.	.	.
=63-	=63-	=63-	=63-	=63-	=63-
0ryy	.	1D	.	0ryy	.
*	*	*Xlig	*	*	*
*	*	*lig	*	*	*
.	.	1C	-cta	.	.
=64-	=64-	=64-	=64-	=64-	=64-
0ryy	.	1D	.	0ryy	.
*	*	*Xlig	*	*	*
.	.	1D	tu	.	.
=65-	=65-	=65-	=65-	=65-	=65-
0ryy	.	1D	in	0ryy	.
.	.	1D	mu-	.	.
=66-	=66-	=66-	=66-	=66-	=66-
0ryy	.	1G	-li-	0ryy	.
*	*	*lig	*	*	*
.	.	1F	-e-	.	.
=67-	=67-	=67-	=67-	=67-	=67-
0ryy	.	1E	.	0ryy	.
*	*	*Xlig	*	*	*
*	*	*lig	*	*	*
.	.	1D	-ri-	.	.
=68-	=68-	=68-	=68-	=68-	=68-
*	*	*custos:C	*	*	*
0ryy	.	1C	.	0ryy	.
*	*	*Xlig	*	*	*
!	!	!LO:LB:g=original	!	!	!
*	*	*lig	*	*	*
.	.	1C	-bus	.	.
=69-	=69-	=69-	=69-	=69-	=69-
0ryy	.	1D	.	0ryy	.
*	*	*Xlig	*	*	*
.	.	1E	.	.	.
=70-	=70-	=70-	=70-	=70-	=70-
0ryy	.	1D	.	0ryy	.
.	.	0E	.	.	.
=71-	=71-	=71-	=71-	=71-	=71-
0ryy	.	.	.	0ryy	.
.	.	1D	.	.	.
=72-	=72-	=72-	=72-	=72-	=72-
0ryy	.	1E	.	0ryy	.
*	*	*lig	*	*	*
.	.	1F	.	.	.
=73-	=73-	=73-	=73-	=73-	=73-
*	*	*col	*	*	*
0ryy	.	2.G/	.	0ryy	.
*	*	*Xlig	*	*	*
.	.	4F/	.	.	.
*	*	*Xcol	*	*	*
.	.	4E/	.	.	.
.	.	4D/	.	.	.
.	.	2G/	.	.	.
=74-	=74-	=74-	=74-	=74-	=74-
0ryy	.	2C/	.	0ryy	.
*	*	*custos:D	*	*	*
.	.	2E/	.	.	.
!	!	!LO:PB:g=original	!	!	!
.	.	1D	.	.	.
=75-	=75-	=75-	=75-	=75-	=75-
0ryy	.	1C	.	0ryy	.
.	.	1r	.	.	.
=76-	=76-	=76-	=76-	=76-	=76-
0ryy	.	1C	et	0ryy	.
*	*	*lig	*	*	*
.	.	1E	be-	.	.
=77-	=77-	=77-	=77-	=77-	=77-
0ryy	.	1F	.	0ryy	.
*	*	*Xlig	*	*	*
.	.	1D	-ne-	.	.
=78-	=78-	=78-	=78-	=78-	=78-
*	*	*lig	*	*	*
0ryy	.	1D	-di-	0ryy	.
.	.	1C	.	.	.
*	*	*Xlig	*	*	*
=79-	=79-	=79-	=79-	=79-	=79-
*	*	*lig	*	*	*
0ryy	.	1D	.	0ryy	.
.	.	1F	.	.	.
*	*	*Xlig	*	*	*
=80-	=80-	=80-	=80-	=80-	=80-
0ryy	.	1G	.	0ryy	.
*	*	*lig	*	*	*
.	.	1F	-ctvs	.	.
=81-	=81-	=81-	=81-	=81-	=81-
0ryy	.	1E	.	0ryy	.
*	*	*Xlig	*	*	*
*	*	*lig	*	*	*
.	.	1F	.	.	.
=82-	=82-	=82-	=82-	=82-	=82-
0ryy	.	1G	.	0ryy	.
*	*	*Xlig	*	*	*
*	*	*custos:G	*	*	*
.	.	1F	.	.	.
!	!	!LO:LB:g=original	!	!	!
=83-	=83-	=83-	=83-	=83-	=83-
0ryy	.	1G	fru-	0ryy	.
.	.	1C	-ctvs	.	.
=84-	=84-	=84-	=84-	=84-	=84-
*	*	*lig	*	*	*
0ryy	.	1D	ven-	0ryy	.
.	.	1F	.	.	.
*	*	*Xlig	*	*	*
=85-	=85-	=85-	=85-	=85-	=85-
0ryy	.	0F	-tris	0ryy	.
=86-	=86-	=86-	=86-	=86-	=86-
0ryy	.	1E	.	0ryy	.
.	.	1D	.	.	.
=87-	=87-	=87-	=87-	=87-	=87-
*	*	*lig	*	*	*
0ryy	.	1D	tu-	0ryy	.
.	.	1E	.	.	.
*	*	*Xlig	*	*	*
=88-	=88-	=88-	=88-	=88-	=88-
0ryy	.	2C/	-i	0ryy	.
*	*	*lig	*	*	*
.	.	1D	.	.	.
.	.	1E/	.	.	.
*	*	*Xlig	*	*	*
=89-	=89-	=89-	=89-	=89-	=89-
0ryy	.	.	.	0ryy	.
.	.	2.F/	.	.	.
.	.	4D/	.	.	.
*	*	*custos:F	*	*	*
.	.	2E/	.	.	.
!	!	!LO:LB:g=original	!	!	!
=90-	=90-	=90-	=90-	=90-	=90-
0ryy	.	2F/	.	0ryy	.
.	.	2D/	.	.	.
.	.	2.G/	.	.	.
.	.	4F/	.	.	.
=91-	=91-	=91-	=91-	=91-	=91-
0ryy	.	1E	.	0ryy	.
.	.	1D;l	.	.	.
=92||	=92||	=92||	=92||	=92||	=92||
!	!	!LO:TX:a:t=Q vomodo fiet istud \nverte folig qvinq(ue) \nBenedictus retro \nTacet	!	!	!
1D	Quo-	1D	Quo-	0ryy	.
1E	-mo-	1C	-mo-	.	.
=93-	=93-	=93-	=93-	=93-	=93-
2D/	-do	1D	-do	0ryy	.
2.F\	ni-	.	.	.	.
*	*	*lig	*	*	*
.	.	1F	ni-	.	.
4G\	.	.	.	.	.
2A\	.	.	.	.	.
=94-	=94-	=94-	=94-	=94-	=94-
2B\	.	1G	.	0ryy	.
4A\	.	.	.	.	.
4G\	.	.	.	.	.
*	*	*Xlig	*	*	*
4A\	.	1D	-q(uit)	.	.
4G\	.	.	.	.	.
4F/	.	.	.	.	.
4E/	.	.	.	.	.
=95-	=95-	=95-	=95-	=95-	=95-
4D/	.	1F	fi-	0ryy	.
*custos:D	*	*	*	*	*
4C/	.	.	.	.	.
!LO:LB:g=original	!	!	!	!	!
2.D/	.	.	.	.	.
*	*	*lig	*	*	*
.	.	1F	-et	.	.
4C/	.	.	.	.	.
4BB/	.	.	.	.	.
4AA/	.	.	.	.	.
=96-	=96-	=96-	=96-	=96-	=96-
1GG	-quid	1G	.	0ryy	.
*	*	*Xlig	*	*	*
2r	.	0A	.	.	.
2.FF/	fi-	.	.	.	.
=97-	=97-	=97-	=97-	=97-	=97-
.	.	.	.	0ryy	.
4GG/	.	.	.	.	.
4AA/	.	.	.	.	.
4BB/	.	.	.	.	.
*	*	*lig	*	*	*
2C/	.	1A	i-	.	.
2D/	.	.	.	.	.
=98-	=98-	=98-	=98-	=98-	=98-
4E/	.	1G	.	0ryy	.
4F/	.	.	.	.	.
1E	.	.	.	.	.
*	*	*Xlig	*	*	*
*	*	*lig	*	*	*
.	.	1F	.	.	.
*custos:C	*	*	*	*	*
1D\	.	.	.	.	.
=99-	=99-	=99-	=99-	=99-	=99-
*	*	*custos:D	*	*	*
.	.	1E	.	0ryy	.
!LO:LB:g=original	!	!	!	!	!
2C/	-et	.	.	.	.
*	*	*Xlig	*	*	*
!	!	!LO:LB:g=original	!	!	!
*	*	*lig	*	*	*
2BB/	i-	1D	.	.	.
1D\	.	.	.	.	.
=100-	=100-	=100-	=100-	=100-	=100-
.	.	1E	.	0ryy	.
2C/	.	.	.	.	.
*	*	*Xlig	*	*	*
1D	-ſtud	1D	-ſtud	.	.
=101-	=101-	=101-	=101-	=101-	=101-
2r	.	1r	.	0ryy	.
2GG/	quo-	.	.	.	.
2FF/	.	1D	quo-	.	.
2.GG/	-ni-	.	.	.	.
=102-	=102-	=102-	=102-	=102-	=102-
.	.	1D	-ni-	0ryy	.
4AA/	.	.	.	.	.
2BB/	.	.	.	.	.
2AA/	-am	1F	-am	.	.
2.BB/	vi-	.	.	.	.
=103-	=103-	=103-	=103-	=103-	=103-
*	*	*lig	*	*	*
.	.	1F	vi-	0ryy	.
*custos:D	*	*	*	*	*
4C/	.	.	.	.	.
!LO:LB:g=original	!	!	!	!	!
2D/	.	.	.	.	.
4C/	.	1E	.	.	.
4BB/	.	.	.	.	.
4AA/	.	.	.	.	.
4GG/	.	.	.	.	.
*	*	*Xlig	*	*	*
=104-	=104-	=104-	=104-	=104-	=104-
1FF	-rum	0F	.	0ryy	.
2r	.	.	.	.	.
2.F\	non	.	.	.	.
=105-	=105-	=105-	=105-	=105-	=105-
.	.	1D	-rum	0ryy	.
4G\	.	.	.	.	.
2A\	.	.	.	.	.
2B\	co-	1G	no(n)	.	.
4A\	.	.	.	.	.
4G\	.	.	.	.	.
=106-	=106-	=106-	=106-	=106-	=106-
2F/	.	2A/	co-	0ryy	.
*custos:D	*	*	*	*	*
2E/	.	2G/	.	.	.
!LO:LB:g=original	!	!	!	!	!
2D/	.	2F/	.	.	.
2C/	.	2E/	.	.	.
=107-	=107-	=107-	=107-	=107-	=107-
*	*	*custos:G	*	*	*
2.D/	[[co]]	1D	.	0ryy	.
4C/	.	.	.	.	.
!	!	!LO:LB:g=original	!	!	!
2BB/	.	2G/	.	.	.
2AA/	.	2F/	.	.	.
=108-	=108-	=108-	=108-	=108-	=108-
1GG	-gno-	2E/	.	0ryy	.
.	.	2D/	-gno-	.	.
2C/	.	2.C/	.	.	.
2BB/	.	.	.	.	.
.	.	4D/	.	.	.
=109-	=109-	=109-	=109-	=109-	=109-
2AA/	.	1E	.	0ryy	.
2GG/	.	.	.	.	.
2FF/	.	1F	.	.	.
1F\	.	.	.	.	.
=110-	=110-	=110-	=110-	=110-	=110-
.	.	1G	.	0ryy	.
2E/	.	.	.	.	.
*custos:C	*	*	*	*	*
2D/	.	2F/	.	.	.
!LO:PB:g=original	!	!	!	!	!
1C/	.	2E/	.	.	.
=111-	=111-	=111-	=111-	=111-	=111-
.	.	1D	.	0ryy	.
2BB/	.	.	.	.	.
4C/	-ſco	1C	-ſco	.	.
4D/	.	.	.	.	.
4E/	.	.	.	.	.
4F/	.	.	.	.	.
=112-	=112-	=112-	=112-	=112-	=112-
2G\	.	1r	.	0ryy	.
2A\	et	.	.	.	.
*	*	*custos:C	*	*	*
4G\	re-	1C	et	.	.
4F/	.	.	.	.	.
4G\	.	.	.	.	.
4F/	.	.	.	.	.
!	!	!LO:PB:g=original	!	!	!
=113-	=113-	=113-	=113-	=113-	=113-
4E/	.	1C	re-	0ryy	.
*custos:E	*	*	*	*	*
4D/	.	.	.	.	.
!LO:LB:g=original	!	!	!	!	!
2.E/	-ſpon-	.	.	.	.
*	*	*lig	*	*	*
.	.	1E	-ſpon-	.	.
4D/	.	.	.	.	.
4C/	.	.	.	.	.
4BB/	.	.	.	.	.
=114-	=114-	=114-	=114-	=114-	=114-
2AA/	.	1F	.	0ryy	.
2.BB/	.	.	.	.	.
*	*	*Xlig	*	*	*
.	.	1D	-de(n)s	.	.
4AA/	.	.	.	.	.
4GG/	.	.	.	.	.
4FF/	.	.	.	.	.
=115-	=115-	=115-	=115-	=115-	=115-
*	*	*lig	*	*	*
2GG/	-dens	1D	an-	0ryy	.
2FF/	.	.	.	.	.
2.AA/	an-	1C	.	.	.
4GG/	.	.	.	.	.
*	*	*Xlig	*	*	*
=116-	=116-	=116-	=116-	=116-	=116-
2AA/	.	2F/	.	0ryy	.
*custos:AA	*	*	*	*	*
2BB/	.	1G	.	.	.
!LO:LB:g=original	!	!	!	!	!
1AA	.	.	.	.	.
.	.	2F/	.	.	.
=117-	=117-	=117-	=117-	=117-	=117-
2r	.	1G	.	0ryy	.
2GG/	.	.	.	.	.
2.D/	.	2.F/	.	.	.
4BB/	.	4D/	.	.	.
=118-	=118-	=118-	=118-	=118-	=118-
2C/	.	2E/	.	0ryy	.
2AA/	.	1F	.	.	.
2BB/	.	.	.	.	.
*	*	*custos:D	*	*	*
2GG/	.	1E/	.	.	.
=119-	=119-	=119-	=119-	=119-	=119-
1C	.	.	.	0ryy	.
!	!	!LO:LB:g=original	!	!	!
.	.	1D	.	.	.
2BB/	-ge-	.	.	.	.
2C/	-lus	1C/	.	.	.
=120-	=120-	=120-	=120-	=120-	=120-
1D	.	.	.	0ryy	.
.	.	2BB/	-ge-	.	.
2E/	vi-	1C	-lus	.	.
!LO:SI:v:t=custos D	!	!	!	!	!
2C/	.	.	.	.	.
!LO:LB:g=original	!	!	!	!	!
=121-	=121-	=121-	=121-	=121-	=121-
2.D/	.	1F	vi-	0ryy	.
4BB/	.	.	.	.	.
2C/	.	2E/	.	.	.
*	*	*lig	*	*	*
2AA/	.	1F\	-xit	.	.
=122-	=122-	=122-	=122-	=122-	=122-
2BB/	.	.	.	0ryy	.
2GG/	.	1G	.	.	.
1AA	-xit	.	.	.	.
*	*	*Xlig	*	*	*
.	.	2F/	.	.	.
=123-	=123-	=123-	=123-	=123-	=123-
2.GG/	e-	1G	.	0ryy	.
4AA/	.	.	.	.	.
4BB/	.	2.D/	e-	.	.
4C/	.	.	.	.	.
1D\	.	.	.	.	.
.	.	4E/	.	.	.
=124-	=124-	=124-	=124-	=124-	=124-
*	*	*custos:G	*	*	*
.	.	2F/	.	0ryy	.
!	!	!LO:LB:g=original	!	!	!
2.E/	.	2.G/	.	.	.
4D/	.	4F/	.	.	.
4C/	.	4E/	.	.	.
4BB/	.	4D/	.	.	.
=125-	=125-	=125-	=125-	=125-	=125-
1C	.	1E	.	0ryy	.
*custos:FF	*	*custos:F	*	*	*
1D;l	-i	1D;l	-i	.	.
!LO:PB:g=original	!	!LO:PB:g=original	!	!	!
=126||	=126||	=126||	=126||	=126||	=126||
*	*	*	*	*clefC3	*
*lig	*	*lig	*	*lig	*
1FF	Spi-	1F	Spi-	1f	Spi-
*	*	*	*	*col	*
1C	.	1G	.	2.e/	.
*Xlig	*	*Xlig	*	*Xlig	*
.	.	.	.	4d/	.
*	*	*	*	*Xcol	*
=127-	=127-	=127-	=127-	=127-	=127-
*	*	*lig	*	*	*
4FF/	-ri-	1A	-ri-	2c/	-ri-
4GG/	.	.	.	.	.
4AA/	.	.	.	2f\	-tus
4BB/	.	.	.	.	.
4C/	.	1G	.	2e/	.
4D/	.	.	.	.	.
2E/	-tus	.	.	2c/	.
*	*	*Xlig	*	*	*
=128-	=128-	=128-	=128-	=128-	=128-
4D/	.	1F	-tus	2d/	.
*custos:F	*	*	*	*	*
4C/	.	.	.	.	.
!LO:PB:g=original	!	!	!	!	!
1F	san-	.	.	2c/	San-
*	*	*lig	*	*	*
.	.	1G	san-	4B/	.
.	.	.	.	4A/	.
2E/	.	.	.	2G/	.
=129-	=129-	=129-	=129-	=129-	=129-
2D/	.	1A	.	2F/	.
2C/	.	.	.	2c/	.
*	*	*Xlig	*	*	*
*	*	*lig	*	*	*
2F/	.	1A	-ctvs	2.F/	-ctvs
2.FF/	-ctvs	.	.	.	.
.	.	.	.	4G/	.
=130-	=130-	=130-	=130-	=130-	=130-
.	.	1c	.	4A/	.
*	*	*	*	*custos:c	*
4GG/	.	.	.	4B/	.
!	!	!	!	!LO:PB:g=original	!
2AA/	.	.	.	2c/	.
*	*	*Xlig	*	*	*
2BB/	.	1G	.	2d/	.
2C/	.	.	.	2c/	.
=131-	=131-	=131-	=131-	=131-	=131-
2D/	.	1F	.	2F/	.
2BB/	.	.	.	2f/	.
2C/	.	1A	.	2e/	.
2D/	.	.	.	2f/	.
=132-	=132-	=132-	=132-	=132-	=132-
2GG/	.	1G	.	2d/	.
2G\	.	.	.	2e/	.
*custos:D	*	*	*	*	*
*	*	*lig	*	*	*
2F\	.	1A	.	1f	.
!LO:LB:g=original	!	!	!	!	!
2D/	.	.	.	.	.
=133-	=133-	=133-	=133-	=133-	=133-
2E/	.	1c	.	2e/	.
1F	.	.	.	2c/	.
*	*	*Xlig	*	*	*
.	.	1G	.	2d/	.
2E/	.	.	.	2e/	.
=134-	=134-	=134-	=134-	=134-	=134-
*	*	*custos:A	*	*	*
1F	.	1F	.	2.A/	.
*	*	*	*	*custos:c	*
.	.	.	.	4B/	.
!	!	!LO:LB:g=original	!	!LO:LB:g=original	!
*	*	*lig	*	*	*
2r	.	1A	.	1c	.
2F\	.	.	.	.	.
=135-	=135-	=135-	=135-	=135-	=135-
2E/	.	1G	.	1r	.
2.C/	.	.	.	.	.
*	*	*Xlig	*	*	*
*	*	*lig	*	*	*
.	.	1A	.	2r	.
4AA/	.	.	.	.	.
2D/	.	.	.	2.d/	.
=136-	=136-	=136-	=136-	=136-	=136-
2GG/	.	1G	.	.	.
.	.	.	.	4c/	.
2G\	.	.	.	2d/	.
*	*	*Xlig	*	*	*
2A\	.	1F	.	2c/	.
2.F/	.	.	.	2A/	.
=137-	=137-	=137-	=137-	=137-	=137-
*	*	*lig	*	*	*
.	.	1A	.	2.c/	.
4D/	.	.	.	.	.
*custos:C	*	*	*	*	*
2F/	.	.	.	.	.
.	.	.	.	4d/	.
!LO:LB:g=original	!	!	!	!	!
2C/	.	1G	.	1e	.
2E/	.	.	.	.	.
*	*	*Xlig	*	*	*
=138-	=138-	=138-	=138-	=138-	=138-
*	*	*lig	*	*	*
2D/	.	1A	.	1f	.
2.F/	.	.	.	.	.
.	.	1G	.	1.d	.
4D/	.	.	.	.	.
2.B\	.	.	.	.	.
*	*	*Xlig	*	*	*
=139-	=139-	=139-	=139-	=139-	=139-
.	.	1D	.	.	.
4G\	.	.	.	.	.
2A\	.	.	.	2f\	Su-
*	*	*	*	*custos:f	*
2B\	.	1D	su-	2d/	-per-
!	!	!	!	!LO:LB:g=original	!
2.A\	.	.	.	2.f\	-ve-
=140-	=140-	=140-	=140-	=140-	=140-
.	.	1D	-per-	.	.
4G\	.	.	.	4e/	.
4F/	.	.	.	4d/	.
4E/	.	.	.	4c/	.
*	*	*lig	*	*	*
1D	su-	1F	-ve-	2d/	-ni-
.	.	.	.	1f\	-e-
=141-	=141-	=141-	=141-	=141-	=141-
1C	-per-	1G	.	.	.
.	.	.	.	2e/	.
*	*	*Xlig	*	*	*
2r	.	1A	-ni-	2f\	.
2.FF/	-ve-	.	.	4e/	.
.	.	.	.	4d/	.
=142-	=142-	=142-	=142-	=142-	=142-
*	*	*lig	*	*	*
.	.	1A	.	1c	.
4GG/	.	.	.	.	.
4AA/	.	.	.	.	.
*custos:C	*	*	*	*	*
4BB/	.	.	.	.	.
!LO:LB:g=original	!	!	!	!	!
2C/	.	1G	.	2c/	.
4BB/	-ni-	.	.	1d\	.
4C/	-et	.	.	.	.
*	*	*Xlig	*	*	*
=143-	=143-	=143-	=143-	=143-	=143-
*	*	*custos:E	*	*	*
4D/	.	0F	.	.	.
4E/	.	.	.	.	.
2.F/	.	.	.	4c/	.
.	.	.	.	4B/	.
.	.	.	.	2A/	.
4E/	.	.	.	.	.
*	*	*	*	*custos:c	*
2.D/	.	.	.	1d\	-et
!	!	!LO:PB:g=original	!	!	!
=144-	=144-	=144-	=144-	=144-	=144-
.	.	1E	.	.	.
4C/	.	.	.	.	.
!	!	!	!	!LO:LB:g=original	!
*	*	*	*	*clefC4	*
2G\	.	.	.	2c\	.
2F\	.	1D	.	1d	.
1D\	.	.	.	.	.
=145-	=145-	=145-	=145-	=145-	=145-
.	.	1E	.	2B/	.
2C/	.	.	.	2c/	.
*	*	*lig	*	*	*
1D	.	1F	-et	2A/	.
.	.	.	.	2.d\	.
=146-	=146-	=146-	=146-	=146-	=146-
2r	.	1D	.	.	.
.	.	.	.	4c/	.
2.D/	ni	.	.	2B/	.
*	*	*Xlig	*	*	*
*	*	*lig	*	*	*
.	.	1F	in	2A/	.
4C/	.	.	.	.	.
*custos:BB	*	*	*	*	*
2AA/	.	.	.	1F/	.
!LO:LB:g=original	!	!	!	!	!
=147-	=147-	=147-	=147-	=147-	=147-
2BB/	.	1G	.	.	.
2C/	.	.	.	2E/	.
*	*	*Xlig	*	*	*
*	*	*lig	*	*	*
2FF/	.	1F	te	1D	.
2.F\	te	.	.	.	.
=148-	=148-	=148-	=148-	=148-	=148-
.	.	1G	.	1C	.
8E/L	.	.	.	.	.
8D/J	.	.	.	.	.
2E/	.	.	.	.	.
*	*	*Xlig	*	*	*
*	*	*lig	*	*	*
2.F\	.	1F	.	2r	.
.	.	.	.	2c\	ni
4G\	.	.	.	.	.
=149-	=149-	=149-	=149-	=149-	=149-
2A\	.	1D	.	2.d\	.
2B\	.	.	.	.	.
*	*	*	*	*custos:e	*
.	.	.	.	4f\	.
*	*	*Xlig	*	*	*
!	!	!	!	!LO:LB:g=original	!
*	*	*	*	*clefC3	*
2.c\	.	1C	.	2.e\	te
4B\	.	.	.	4d/	.
=150-	=150-	=150-	=150-	=150-	=150-
*	*	*lig	*	*	*
4A\	.	1F	.	2c/	.
4G\	.	.	.	.	.
1F	.	.	.	4B/	.
.	.	.	.	4A/	.
.	.	1G	.	2B/	.
2E/	.	.	.	2c/	.
=151-	=151-	=151-	=151-	=151-	=151-
!	!	!LO:N:vis=1	!	!	!
1D	.	0F	.	0.d	.
*custos:A	*	*	*	*	*
2r	.	.	.	.	.
!LO:PB:g=original	!	!	!	!	!
2A\	.	.	.	.	.
*	*	*Xlig	*	*	*
=152-	=152-	=152-	=152-	=152-	=152-
2B\	.	1D	.	.	.
2.A\	.	.	.	.	.
*	*	*custos:F	*	*	*
.	.	1C	.	1e	.
4G\	.	.	.	.	.
2.c\	.	.	.	.	.
!	!	!LO:LB:g=original	!	!	!
=153-	=153-	=153-	=153-	=153-	=153-
*	*	*	*	*col	*
.	.	0F	.	1.c	.
4B\	.	.	.	.	.
4A\	.	.	.	.	.
4G\	.	.	.	.	.
4F/	.	.	.	.	.
4E/	.	.	.	.	.
1D\	.	.	.	2d	.
*	*	*	*	*Xcol	*
=154-	=154-	=154-	=154-	=154-	=154-
*	*	*	*	*lig	*
.	.	1E	.	1e	.
2C/	.	.	.	.	.
1D	.	1D	.	1f	.
*	*	*	*	*Xlig	*
=155-	=155-	=155-	=155-	=155-	=155-
*	*	*	*	*lig	*
2GG/	.	1G	.	1d	.
2.BB/	.	.	.	.	.
*	*	*	*	*col	*
.	.	0F	.	2.f\	.
4AA/	.	.	.	.	.
*custos:BB	*	*	*	*	*
2FF/	.	.	.	.	.
*	*	*	*	*Xlig	*
*	*	*	*	*custos:d	*
.	.	.	.	4e/	.
*	*	*	*	*Xcol	*
!LO:LB:g=original	!	!	!	!LO:PB:g=original	!
=156-	=156-	=156-	=156-	=156-	=156-
*	*	*	*	*clefC4	*
2BB/	.	.	.	2d/	.
2AA/	.	.	.	2.c/	.
1GG	.	1E	.	.	.
.	.	.	.	4A/	.
.	.	.	.	2B/	.
=157-	=157-	=157-	=157-	=157-	=157-
*	*	*	*	*lig	*
2.FF/	.	2D/	.	1A	.
.	.	2.F/	.	.	.
4GG/	.	.	.	.	.
*	*	*	*	*col	*
4AA/	.	.	.	2.c\	.
4BB/	.	4E/	.	.	.
2C/	.	2C/	.	.	.
*	*	*	*	*Xlig	*
.	.	.	.	4B/	.
*	*	*	*	*Xcol	*
=158-	=158-	=158-	=158-	=158-	=158-
2D/	.	2F/	.	2A/	.
1C	.	2E/	.	2G/	.
.	.	1D	.	2A/	.
2BB/	.	.	.	2B/	.
=159-	=159-	=159-	=159-	=159-	=159-
2C/	.	1C	.	2G/	.
2G\	et	.	.	1c	.
*custos:G	*	*custos:C	*	*	*
2A\	vir-	1r	.	.	.
!LO:LB:g=original	!	!	!	!	!
2.G\	-tus	.	.	2B/	.
!	!	!LO:LB:g=original	!	!	!
=160-	=160-	=160-	=160-	=160-	=160-
.	.	1C	et	1c	.
4F\	.	.	.	.	.
4E\	.	.	.	.	.
4D/	.	.	.	.	.
*	*	*lig	*	*	*
4C/	.	1E	vir-	0c	.
4BB/	.	.	.	.	.
2.AA/	.	.	.	.	.
=161-	=161-	=161-	=161-	=161-	=161-
.	.	1F	.	.	.
4FF/	.	.	.	.	.
2.F\	al-	.	.	.	.
*	*	*Xlig	*	*	*
.	.	1D	-tus	00r	.
4G\	-tis-	.	.	.	.
2A\	.	.	.	.	.
=162-	=162-	=162-	=162-	=162-	=162-
2B\	.	1D	al-	.	.
2A\	.	.	.	.	.
*	*	*lig	*	*	*
2B\	Si-	1D	-tis-	.	.
2.A\	-mi	.	.	.	.
=163-	=163-	=163-	=163-	=163-	=163-
.	.	1C	.	.	.
4F/	.	.	.	.	.
*custos:B	*	*	*	*	*
2G\	.	.	.	.	.
*	*	*Xlig	*	*	*
!LO:LB:g=original	!	!	!	!	!
2B\	.	1D	-ſi-	1r	.
2.A\	.	.	.	.	.
=164-	=164-	=164-	=164-	=164-	=164-
*	*	*lig	*	*	*
*	*	*	*	*custos:A	*
!	!	!	!	!	!
.	.	1F	.	2r	.
4G\	.	.	.	.	.
!	!	!	!	!LO:LB:g=original	!
2F\	.	.	.	2A/	et
1E	.	1G	.	2B/	.
.	.	.	.	2c\	vir-
*	*	*Xlig	*	*	*
=165-	=165-	=165-	=165-	=165-	=165-
*	*	*lig	*	*	*
1.D	.	1F	.	1d	.
.	.	1E	.	2G/	-tvs
2C/	.	.	.	2c/	.
*	*	*Xlig	*	*	*
=166-	=166-	=166-	=166-	=166-	=166-
*	*	*lig	*	*	*
2D/	.	1F	-mi	2A/	.
!LO:SIC:v:s=1BB-	!	!	!	!	!
1BB	.	.	.	1B-X	al-
.	.	1G	.	.	.
2C/	.	.	.	4A/	-tis-
.	.	.	.	4G/	-ſi-
*	*	*Xlig	*	*	*
=167-	=167-	=167-	=167-	=167-	=167-
2AA/	.	1F	.	4A/	.
.	.	.	.	4G/	.
2BB/	.	.	.	2.F/	.
1GG	.	1G	o-	.	.
.	.	.	.	8E/L	.
.	.	.	.	8D/J	.
*	*	*	*	*custos:F	*
.	.	.	.	2E/	.
!	!	!	!	!LO:LB:g=original	!
=168-	=168-	=168-	=168-	=168-	=168-
*	*	*custos:D	*	*	*
1FF	.	1C	-bum-	1F	.
*custos:F	*	*	*	*	*
!	!	!LO:LB:g=original	!	!	!
*	*	*lig	*	*	*
2r	.	1D	-bra-	2F/	-mi
!LO:LB:g=original	!	!	!	!	!
2.F\	o-	.	.	2.D/	o-
=169-	=169-	=169-	=169-	=169-	=169-
.	.	1F	.	.	.
4G\	-bum-	.	.	4E/	-bum-
2A\	.	.	.	4F/	.
.	.	.	.	4G/	.
*	*	*Xlig	*	*	*
2D/	bra-	0F	-bit	4A/	.
.	.	.	.	4Bny/	.
1A\	.	.	.	1c\	-bra-
=170-	=170-	=170-	=170-	=170-	=170-
.	.	.	.	.	.
4G\	.	.	.	4B/	.
4F\	.	.	.	4A/	.
*	*	*lig	*	*	*
2.G\	.	1E	.	2B/	-bit
.	.	.	.	2c\	.
4A\	.	.	.	.	.
=171-	=171-	=171-	=171-	=171-	=171-
2B\	.	1D	.	2d\	.
*	*	*	*	*custos:f	*
1c	.	.	.	2e\	.
*	*	*Xlig	*	*	*
!	!	!	!	!LO:LB:g=original	!
*	*	*lig	*	*	*
.	.	1D	ti-	2f\	ti-
2B\	-bit	.	.	4d\	.
.	.	.	.	4f\	.
=172-	=172-	=172-	=172-	=172-	=172-
2c\	.	1C	.	4e\	.
.	.	.	.	4d\	.
2.A\	ti-	.	.	1c	.
*	*	*Xlig	*	*	*
.	.	1D	.	.	.
4G\	-bi	.	.	.	.
!LO:SIC;v:t=custos E	!	!	!	!	!
1F\	.	.	.	2B/	.
=173-	=173-	=173-	=173-	=173-	=173-
*	*	*lig	*	*	*
.	.	1C	.	1.c	-bi
!LO:PB:g=original	!	!	!	!	!
2E/	.	.	.	.	.
2F/	.	1AA	.	.	.
2FF/	.	.	.	4B/	.
.	.	.	.	4A/	.
*	*	*Xlig	*	*	*
=174-	=174-	=174-	=174-	=174-	=174-
2GG/	.	1D	.	2G/	.
2BB/	.	.	.	4F/	.
.	.	.	.	4G/	.
2AA/	.	2C/	.	4A/	.
*	*	*	*	*custos:B	*
.	.	.	.	4F/	.
!	!	!	!	!LO:LB:g=original	!
1GG/	.	1D/	-bi	1B\	.
=175-	=175-	=175-	=175-	=175-	=175-
.	.	.	.	.	.
2G\	.	2E/	.	4A/	.
.	.	.	.	4G/	.
*	*	*	*	*Xbrackettup	*
!	!	!	!	!LO:TUP:b	!
2F/	.	2F/	.	6A/	.
.	.	.	.	6B/	.
.	.	.	.	6c/	.
*	*	*	*	*lig	*
2.E/	.	2G/	.	1F/	.
=176-	=176-	=176-	=176-	=176-	=176-
*	*	*custos:E	*	*	*
.	.	1D	.	.	.
4D/	.	.	.	.	.
*	*	*	*	*col	*
1D	.	.	.	2.G/	.
!	!	!LO:LB:g=original	!	!	!
.	.	1E	.	.	.
*	*	*	*	*Xlig	*
.	.	.	.	4A/	.
*	*	*	*	*Xcol	*
2C/	.	.	.	1B\	.
=177-	=177-	=177-	=177-	=177-	=177-
0D;<l	.	0D;l	.	.	.
.	.	.	.	1.A;;l	.
!LO:LB:g=original	!	!	!	!	!
=178||	=178||	=178||	=178||	=178||	=178||
*lig	*	*lig	*	*	*
1G	I-	1C	I-	1c	I-
1.F	.	1D	.	2A/	-de-
*	*	*	*	*custos:A	*
.	.	.	.	2B/	.
*Xlig	*	*Xlig	*	*	*
!	!	!	!	!LO:LB:g=original	!
=179-	=179-	=179-	=179-	=179-	=179-
*	*	*lig	*	*	*
.	.	1F	-de-	2A/	-o-
1D	-de-	.	.	4G/	.
.	.	.	.	4F/	.
.	.	1G	.	1E	.
2C/	-o-	.	.	.	.
*	*	*Xlig	*	*	*
=180-	=180-	=180-	=180-	=180-	=180-
2.D/	.	1F	.	4D/	.
.	.	.	.	4E/	.
.	.	.	.	4F/	.
4E/	.	.	.	4G/	.
*	*	*lig	*	*	*
2F/	.	1F	-o-	4A/	.
.	.	.	.	4B/	.
2FF/	.	.	.	1c\	.
=181-	=181-	=181-	=181-	=181-	=181-
1GG	.	1D	.	.	.
.	.	.	.	2B/	.
!	!	!LO:N:vis=1	!	!	!
2FF/	.	0F	.	1c	.
1F\	.	.	.	.	.
*	*	*Xlig	*	*	*
=182-	=182-	=182-	=182-	=182-	=182-
.	.	.	.	2A/	.
4E/	.	.	.	1d	.
4D/	.	.	.	.	.
1E	.	1G	.	.	.
*	*	*	*	*custos:A	*
.	.	.	.	1c\	.
=183-	=183-	=183-	=183-	=183-	=183-
*custos:D	*	*	*	*	*
2AA/	.	1A	.	.	.
!LO:LB:g=original	!	!	!	!LO:LB:g=original	!
1D	.	.	.	2.A/	.
.	.	1F	.	.	.
.	.	.	.	4B/	.
4C/	.	.	.	1c\	.
4BB/	.	.	.	.	.
=184-	=184-	=184-	=184-	=184-	=184-
*	*	*custos:G	*	*	*
1C	.	1E	.	.	.
.	.	.	.	2c/	.
!	!	!LO:PB:g=original	!	!	!
2GG/	.	1G	.	2B/	.
1BB-X/	.	.	.	1d\	.
=185-	=185-	=185-	=185-	=185-	=185-
.	.	0F	.	.	.
4AA/	.	.	.	4c\	.
4GG/	.	.	.	4B/	.
2AA/	.	.	.	2c\	.
2BBny/	.	.	.	2d\	.
=186-	=186-	=186-	=186-	=186-	=186-
*	*	*	*	*lig	*
1C	.	1E	.	1G	.
2FF/	.	1D	.	1A	.
1F\	.	.	.	.	.
*	*	*	*	*Xlig	*
=187-	=187-	=187-	=187-	=187-	=187-
.	.	1E	.	2G/	.
2E/	.	.	.	1c	.
1D	.	1F	.	.	.
*	*	*	*	*custos:c	*
.	.	.	.	2B/	.
!	!	!	!	!LO:LB:g=original	!
=188-	=188-	=188-	=188-	=188-	=188-
*	*	*lig	*	*	*
1C	-q(ue)	1E	.	4c/	.
.	.	.	.	4B/	.
.	.	.	.	4A/	.
.	.	.	.	4G/	.
*custos:A	*	*	*	*	*
1D	.	1F	.	4F/	.
.	.	.	.	4E/	.
.	.	.	.	1D/	.
*	*	*Xlig	*	*	*
!LO:LB:g=original	!	!	!	!	!
=189-	=189-	=189-	=189-	=189-	=189-
*	*	*lig	*	*	*
1AA	.	1E	-q(ue)	.	.
.	.	.	.	2C/	.
2r	.	1D	.	1D	-q(ue)
2.A\	et	.	.	.	.
*	*	*Xlig	*	*	*
=190-	=190-	=190-	=190-	=190-	=190-
.	.	1D	et	2r	.
4G\	qvod	.	.	.	.
2B\	.	.	.	2d\	et
*	*	*lig	*	*	*
2A\	.	1F	quod	2c\	qvod
*	*	*	*	*lig	*
2.F\	.	.	.	1A\	.
=191-	=191-	=191-	=191-	=191-	=191-
.	.	1D	.	.	.
4E/	.	.	.	.	.
4D/	.	.	.	1d	.
4C/	.	.	.	.	.
*	*	*Xlig	*	*Xlig	*
2BB/	.	1F	.	.	.
2AA/	na-	.	.	2c\	na-
=192-	=192-	=192-	=192-	=192-	=192-
*	*	*lig	*	*	*
2GG/	-sce-	1G	na-	2B/	-sce-
2C/	.	.	.	2G/	.
*	*	*custos:G	*	*	*
2AA/	.	1F	.	4A/	.
*	*	*	*	*custos:F	*
.	.	.	.	4G/	.
!	!	!	!	!LO:LB:g=original	!
2BB/	.	.	.	2.F/	.
*	*	*Xlig	*	*	*
!	!	!LO:LB:g=original	!	!	!
=193-	=193-	=193-	=193-	=193-	=193-
*	*	*lig	*	*	*
1GG	.	1G	-sce-	.	.
.	.	.	.	8E/L	.
.	.	.	.	8D/J	.
.	.	.	.	2E/	.
1FF	.	1A	.	2F/	.
.	.	.	.	2f\	.
*	*	*Xlig	*	*	*
=194-	=194-	=194-	=194-	=194-	=194-
*custos:C	*	*	*	*	*
2r	.	1G	.	2d\	.
!LO:LB:g=original	!	!	!	!	!
2C/	.	.	.	2.e\	.
2C/	.	1E	.	.	.
.	.	.	.	4d\	.
2C/	.	.	.	4c\	.
.	.	.	.	4B/	.
=195-	=195-	=195-	=195-	=195-	=195-
*	*	*lig	*	*	*
1D	.	1F	.	1A	.
2GG/	.	1G	.	1B	.
2G\	.	.	.	.	.
*	*	*Xlig	*	*	*
=196-	=196-	=196-	=196-	=196-	=196-
2A\	.	1F	.	4A/	.
.	.	.	.	4B/	.
2F\	.	.	.	4c\	.
.	.	.	.	4d\	.
*	*	*	*	*custos:f	*
2G\	.	2E/	.	2e\	.
!	!	!	!	!LO:LB:g=original	!
2A\	.	2D/	.	2.f\	.
=197-	=197-	=197-	=197-	=197-	=197-
2E/	.	1F	.	.	.
.	.	.	.	4e\	.
2A\	.	.	.	4c\	.
.	.	.	.	4d\	.
2G\	.	2C/	.	2e\	.
1B\	.	2.D/	.	2.f\	.
=198-	=198-	=198-	=198-	=198-	=198-
.	.	.	.	.	.
.	.	4E/	.	4e\	.
1A	.	2F/	.	1d	.
.	.	1E	.	.	.
*custos:B	*	*	*	*	*
2G\	-tur	.	.	2c/	.
!LO:PB:g=original	!	!	!	!	!
=199-	=199-	=199-	=199-	=199-	=199-
*	*	*custos:F	*	*	*
2B\	.	1D	-tur	1d	-tur
2.A\	.	.	.	.	.
!	!	!LO:LB:g=original	!	!	!
*	*	*lig	*	*	*
.	.	1F	ex	2r	.
4G/	.	.	.	.	.
1F\	.	.	.	2c/	ex
=200-	=200-	=200-	=200-	=200-	=200-
.	.	1G	.	2B/	.
2E/	.	.	.	2G/	.
*	*	*Xlig	*	*	*
*	*	*lig	*	*	*
1D	.	1F	te	2A/	.
.	.	.	.	2B/	te
=201-	=201-	=201-	=201-	=201-	=201-
*	*	*	*	*custos:d	*
2C/	.	1G	.	2c/	.
!	!	!	!	!LO:PB:g=original	!
2BB/	ex	.	.	2.d\	.
*	*	*Xlig	*	*	*
2AA/	.	1F	.	.	.
.	.	.	.	4c/	.
2FF/	.	.	.	1c\	.
=202-	=202-	=202-	=202-	=202-	=202-
1GG	te	1D	san-	.	.
.	.	.	.	2B/	.
2r	.	1C	.	1c	san-
2G\	ex	.	.	.	.
=203-	=203-	=203-	=203-	=203-	=203-
2F\	te	0F	.	1A	.
2.D/	.	.	.	.	.
.	.	.	.	2r	.
4E/	.	.	.	.	.
*custos:C	*	*	*	*	*
2F/	.	.	.	1c\	.
!LO:LB:g=original	!	!	!	!	!
=204-	=204-	=204-	=204-	=204-	=204-
1C	san-	1E	.	.	.
.	.	.	.	2c/	.
*	*	*	*	*lig	*
1D	.	1D	.	1A	.
=205-	=205-	=205-	=205-	=205-	=205-
1GG	.	1G	.	1B	.
*	*	*	*	*Xlig	*
2AA/	.	0F	.	2A/	.
2.BB/	.	.	.	2.F/	.
=206-	=206-	=206-	=206-	=206-	=206-
.	.	.	.	.	.
4AA/	.	.	.	4E/	.
2FF/	.	.	.	1D	.
2GG/	.	1E	.	.	.
2AA/	.	.	.	2C/	.
=207-	=207-	=207-	=207-	=207-	=207-
*	*	*custos:F	*	*	*
1BB	.	1D	.	2D/	.
*	*	*	*	*custos:c	*
.	.	.	.	2d\	.
!	!	!LO:LB:g=original	!	!LO:LB:g=original	!
2AA/	.	2.F/	.	2c\	.
2FF/	.	.	.	2A/	.
.	.	4E/	.	.	.
=208-	=208-	=208-	=208-	=208-	=208-
2GG/	.	2D/	.	2B/	.
1G	.	2C/	.	1c	.
.	.	1D	.	.	.
4F/	.	.	.	4B/	.
*custos:F	*	*	*	*	*
4E/	.	.	.	4A/	.
!LO:LB:g=original	!	!	!	!	!
=209-	=209-	=209-	=209-	=209-	=209-
*	*	*lig	*	*	*
1F	.	1D	-ctvm	1B	-ctvm
1G	-ctvm	1C	.	2c\	.
.	.	.	.	4B/	.
.	.	.	.	4A/	.
*	*	*Xlig	*	*	*
=210-	=210-	=210-	=210-	=210-	=210-
*	*	*lig	*	*	*
2r	.	1E	vo-	1G	.
2C/	vo-	.	.	.	.
2D/	.	1F	.	2F/	vo-
2.BB-X/	-ca-	.	.	2.D/	-ca-
*	*	*Xlig	*	*	*
=211-	=211-	=211-	=211-	=211-	=211-
.	.	1D	-ca-	.	.
4GG/	.	.	.	4E/	-bi-
1D	-bi-	.	.	1F	.
*	*	*lig	*	*	*
.	.	1D	-bi-	.	.
4C/	.	.	.	4E/	.
4BB-/	.	.	.	4D/	.
=212-	=212-	=212-	=212-	=212-	=212-
*	*	*	*	*custos:F	*
1AA	.	1C	.	2E/	.
!	!	!	!	!LO:LB:g=original	!
.	.	.	.	2F/	.
*	*	*Xlig	*	*	*
1GG	.	1D	.	2D/	.
.	.	.	.	2.d\	.
=213-	=213-	=213-	=213-	=213-	=213-
*	*	*lig	*	*	*
1D	.	1F	.	.	.
.	.	.	.	4e\	.
.	.	.	.	1f	.
2.C/	.	1G	.	.	.
.	.	.	.	2e\	-tur
4BBny/	-tur	.	.	.	.
*	*	*Xlig	*	*	*
=214-	=214-	=214-	=214-	=214-	=214-
2AA/	.	1F	-tur	1f	.
*custos:GG	*	*	*	*	*
2BB/	.	.	.	.	.
*	*	*custos:G	*	*	*
!LO:LB:g=original	!	!	!	!	!
2GG/	.	1E	.	2r	.
2.G\	.	.	.	1d\	.
!	!	!LO:LB:g=original	!	!	!
=215-	=215-	=215-	=215-	=215-	=215-
.	.	1G	.	.	.
4F\	.	.	.	.	.
4E/	.	.	.	2c\	.
4F\	.	.	.	.	.
*	*	*lig	*	*	*
1D	.	1A	.	1f	.
=216-	=216-	=216-	=216-	=216-	=216-
*	*	*col	*	*	*
1C	.	2.c\	.	2.e\	.
*	*	*Xlig	*	*	*
.	.	4B\	.	4d\	.
*	*	*Xcol	*	*	*
2FF/	.	4A\	.	4c/	.
.	.	4G/	.	4B/	.
2FF/	.	2F/	.	2A/	.
=217-	=217-	=217-	=217-	=217-	=217-
*	*	*2\right	*	*	*
2GG/	.	2B\	.	4G/	.
.	.	.	.	4F/	.
*	*	*	*	*custos:e	*
2AA/	.	2A\	.	1f	.
2BB/	.	1G	.	.	.
!	!	!	!	!LO:LB:g=original	!
2C/	.	.	.	2e\	.
=218-	=218-	=218-	=218-	=218-	=218-
1FF	.	1F	.	1f	.
1r	.	1r	.	1r	.
=219-	=219-	=219-	=219-	=219-	=219-
*lig	*	*lig	*	*lig	*
1F	fi-	1F	fi-	1f	fi-
*custos:FF	*	*	*	*	*
1C	.	1G	.	1e	.
*Xlig	*	*Xlig	*	*Xlig	*
!LO:LB:g=original	!	!	!	!	!
=220-	=220-	=220-	=220-	=220-	=220-
2.FF/	-li-	1F	.	2d\	.
.	.	.	.	1c	.
4GG/	-vs	.	.	.	.
*	*	*custos:C	*	*	*
1AA	.	1E	.	.	.
.	.	.	.	2.c\	.
!	!	!LO:PB:g=original	!	!	!
=221-	=221-	=221-	=221-	=221-	=221-
1AA	.	1C	lu-	.	.
.	.	.	.	4B/	li-
.	.	.	.	2.A/	.
*	*	*lig	*	*	*
2AA/	.	1C	-is	.	.
.	.	.	.	4G/	.
2FF/	.	.	.	2B/	.
=222-	=222-	=222-	=222-	=222-	=222-
2BB/	.	1D	.	2F/	.
1GG	.	.	.	2G/	.
*	*	*Xlig	*	*	*
.	.	1F	.	1A	.
2FF/	.	.	.	.	.
=223-	=223-	=223-	=223-	=223-	=223-
*	*	*	*	*custos:d	*
1GG	.	1D	.	2D/	.
!	!	!	!	!LO:LB:g=original	!
.	.	.	.	1d	.
1GG	.	1E	.	.	.
.	.	.	.	4c/	.
.	.	.	.	4B/	.
=224-	=224-	=224-	=224-	=224-	=224-
2FF/	.	1F	.	2.A/	.
1F	.	.	.	.	.
.	.	.	.	4B/	.
*	*	*lig	*	*	*
.	.	1G	de-	1c	.
2E/	.	.	.	.	.
=225-	=225-	=225-	=225-	=225-	=225-
2F/	.	1F	.	2F/	.
2FF/	.	.	.	1f	.
*	*	*Xlig	*	*	*
*custos:D	*	*	*	*	*
1C	.	1G	.	.	.
.	.	.	.	2e\	vs
!LO:PB:g=original	!	!	!	!	!
=226-	=226-	=226-	=226-	=226-	=226-
*lig	*	*lig	*	*	*
1D	de-	1F	.	1.f	.
1BB	.	1D	.	.	.
.	.	.	.	4e\	.
.	.	.	.	4d\	.
*Xlig	*	*Xlig	*	*	*
=227-	=227-	=227-	=227-	=227-	=227-
2AA/	.	0F	.	2c\	.
1BB	.	.	.	1d	.
2AA/	.	.	.	2c\	.
=228-	=228-	=228-	=228-	=228-	=228-
1GG	.	1G	.	1B	.
*	*	*lig	*	*	*
1FF	.	1A	.	2A/	.
*	*	*	*	*custos:E	*
.	.	.	.	1F/	.
=229-	=229-	=229-	=229-	=229-	=229-
*	*	*custos:A	*	*	*
1C	.	1G	.	.	.
!	!	!	!	!LO:LB:g=original	!
.	.	.	.	2E/	.
*	*	*Xlig	*	*	*
!	!	!LO:LB:g=original	!	!	!
2.FF/	.	1A	.	1F	.
4GG/	.	.	.	.	.
=230-	=230-	=230-	=230-	=230-	=230-
2AA/	.	0F	.	2r	.
2.BB/	.	.	.	2.D/	de-
4C/	.	.	.	4E/	.
2D/	.	.	.	2F/	.
=231-	=231-	=231-	=231-	=231-	=231-
1C	-i	1E	.	1G	.
*	*	*	*	*lig	*
1r	.	1D	.	1F	-j
=232-	=232-	=232-	=232-	=232-	=232-
*	*ij	*lig	*	*	*
*custos:G	*	*	*	*	*
1F	de	1D	-j	1f	.
*	*	*	*	*Xlig	*
!LO:LB:g=original	!	!	!	!	!
1G	.	1C	.	1e	.
*	*	*Xlig	*	*	*
=233-	=233-	=233-	=233-	=233-	=233-
2F\	.	1D	.	1d	.
2.A\	.	.	.	.	.
.	.	0F	.	2c/	.
4G\	.	.	.	.	.
4F/	.	.	.	1c\	.
4E/	.	.	.	.	.
=234-	=234-	=234-	=234-	=234-	=234-
1D	.	.	.	.	.
.	.	.	.	2B/	.
1C	.	1G	.	1c	.
=235-	=235-	=235-	=235-	=235-	=235-
2r	.	1A	.	2.c/	.
1F	.	.	.	.	.
.	.	.	.	4d/	.
*	*	*	*	*custos:f	*
.	.	1G	.	1e	.
2E/	.	.	.	.	.
!	!	!	!	!LO:LB:g=original	!
=236-	=236-	=236-	=236-	=236-	=236-
2D/	.	0F	.	2f\	.
2BB-X/	.	.	.	2d\	.
1D	.	.	.	1f	.
=237-	=237-	=237-	=237-	=237-	=237-
2C/	.	1A	.	2.e\	.
2AA/	.	.	.	.	.
.	.	.	.	4d\	.
*	*	*custos:F	*	*	*
1C	.	1G	.	2.c\	.
.	.	.	.	4B/	.
!	!	!LO:LB:g=original	!	!	!
=238-	=238-	=238-	=238-	=238-	=238-
*custos:F	*	*	*	*	*
2FF/	.	0F	.	0A	.
!LO:LB:g=original	!	!	!	!	!
2F/	.	.	.	.	.
2D/	.	.	.	.	.
2F/	.	.	.	.	.
=239-	=239-	=239-	=239-	=239-	=239-
2C/	.	1E	.	1r	.
2AA/	.	.	.	.	.
1BBny	.	1D	.	1d	.
=240-	=240-	=240-	=240-	=240-	=240-
1.AA	.	2E/	.	1c	.
.	.	2F/	.	.	.
.	.	2E/	.	2c/	.
2FF/	.	1F\	.	1d\	.
=241-	=241-	=241-	=241-	=241-	=241-
1BB	.	.	.	.	.
.	.	4E/	.	4c/	.
.	.	4D/	.	4B/	.
*	*	*	*	*custos:d	*
0AA	.	2E/	.	2c/	.
!	!	!	!	!LO:LB:g=original	!
.	.	2F/	.	2.d\	.
=242-	=242-	=242-	=242-	=242-	=242-
.	.	1E	.	.	.
.	.	.	.	8c/L	.
.	.	.	.	8B/J	.
.	.	.	.	2c/	.
*lig	*	*	*	*	*
1BB	.	[1D;l	.	2.d\	.
.	.	.	.	4c/	.
=243-	=243-	=243-	=243-	=243-	=243-
1GG	.	0D]	.	4B/	.
.	.	.	.	4G/	.
.	.	.	.	2B/	.
*Xlig	*	*	*	*	*
1D;;l	-i	.	.	1A;l/	.
*	*Xij	*	*	*	*
==	==	==	==	==	==
*-	*-	*-	*-	*-	*-
!!!system-decoration: [(s1,s2,s3)]
!!!RDF**kern: < = below
!!!RDF**kern: l = terminal long
!!!ENC: Filip Voros
!!!END: 2022-01-19
!!!ENC: Marta Lawrence
!!!END: 2022-01-25
!!!YEC: Copyright 2022 Narodowy Instytut Fryderyka Chopina (https://polishscores.org)
!!!YEM: License CC-BY-4.0 (https://creativecommons.org/licenses/by/4.0)
